svg/fluentui-system-icons/ic_fluent_brightness_high_32_filled.svg

<svg width="32" height="32" viewBox="0 0 32 32" fill="none" xmlns="http://www.w3.org/2000/svg">
<path d="M17.0003 3C17.0003 2.44772 16.5525 2 16.0003 2C15.448 2 15.0003 2.44772 15.0003 3V5C15.0003 5.55228 15.448 6 16.0003 6C16.5525 6 17.0003 5.55228 17.0003 5V3ZM23.0003 16C23.0003 19.866 19.8662 23 16.0003 23C12.1343 23 9.00025 19.866 9.00025 16C9.00025 12.134 12.1343 9 16.0003 9C19.8662 9 23.0003 12.134 23.0003 16ZM21.0003 16C21.0003 13.2386 18.7617 11 16.0003 11V21C18.7617 21 21.0003 18.7614 21.0003 16ZM30.0003 16C30.0003 16.5523 29.5525 17 29.0003 17H27.0003C26.448 17 26.0003 16.5523 26.0003 16C26.0003 15.4477 26.448 15 27.0003 15H29.0003C29.5525 15 30.0003 15.4477 30.0003 16ZM17.0003 27C17.0003 26.4477 16.5525 26 16.0003 26C15.448 26 15.0003 26.4477 15.0003 27V29.0005C15.0003 29.5528 15.448 30.0005 16.0003 30.0005C16.5525 30.0005 17.0003 29.5528 17.0003 29.0005V27ZM6.00025 16C6.00025 16.5523 5.55254 17 5.00025 17H3C2.44772 17 2 16.5523 2 16C2 15.4477 2.44772 15 3 15H5.00025C5.55254 15 6.00025 15.4477 6.00025 16ZM6.70736 5.29369C6.31683 4.90316 5.68367 4.90316 5.29314 5.29369C4.90262 5.68421 4.90262 6.31738 5.29314 6.7079L7.29314 8.7079C7.68367 9.09842 8.31683 9.09842 8.70736 8.7079C9.09788 8.31738 9.09788 7.68421 8.70736 7.29369L6.70736 5.29369ZM5.29314 26.708C5.68367 27.0985 6.31683 27.0985 6.70736 26.708L8.70736 24.708C9.09788 24.3175 9.09788 23.6843 8.70736 23.2938C8.31683 22.9033 7.68367 22.9033 7.29314 23.2938L5.29314 25.2938C4.90262 25.6843 4.90262 26.3175 5.29314 26.708ZM25.2931 5.29369C25.6837 4.90316 26.3168 4.90316 26.7074 5.29369C27.0979 5.68421 27.0979 6.31738 26.7074 6.7079L24.7074 8.7079C24.3168 9.09842 23.6837 9.09842 23.2931 8.7079C22.9026 8.31738 22.9026 7.68421 23.2931 7.29369L25.2931 5.29369ZM25.2931 26.708L23.2931 24.708C22.9026 24.3175 22.9026 23.6843 23.2931 23.2938C23.6837 22.9033 24.3168 22.9033 24.7074 23.2938L26.7074 25.2938C27.0979 25.6843 27.0979 26.3175 26.7074 26.708C26.3168 27.0985 25.6837 27.0985 25.2931 26.708Z" fill="#212121"/>
</svg>

<svg xmlns="http://www.w3.org/2000/svg" width="32" height="32"><path d="M17 3a1 1 0 0 0-2 0v2a1 1 0 1 0 2 0V3Zm6 13a7 7 0 1 1-14 0 7 7 0 0 1 14 0Zm-2 0a5 5 0 0 0-5-5v10a5 5 0 0 0 5-5Zm9 0a1 1 0 0 1-1 1h-2a1 1 0 1 1 0-2h2a1 1 0 0 1 1 1ZM17 27a1 1 0 0 0-2 0v2a1 1 0 1 0 2 0v-2ZM6 16a1 1 0 0 1-1 1H3a1 1 0 1 1 0-2h2a1 1 0 0 1 1 1Zm.707-10.706a1 1 0 1 0-1.414 1.414l2 2a1 1 0 0 0 1.414-1.414l-2-2ZM5.293 26.708a1 1 0 0 0 1.414 0l2-2a1 1 0 1 0-1.414-1.414l-2 2a1 1 0 0 0 0 1.414Zm20-21.414a1 1 0 0 1 1.414 1.414l-2 2a1 1 0 0 1-1.414-1.414l2-2Zm0 21.414-2-2a1 1 0 0 1 1.414-1.414l2 2a1 1 0 0 1-1.414 1.414Z"/></svg>
